<?xml version="1.0" encoding="UTF-8"?>
<map version="1.2" tiledversion="1.2.4" orientation="orthogonal" renderorder="right-down" width="16" height="14" tilewidth="32" tileheight="32" infinite="0" nextlayerid="25" nextobjectid="67">
 <tileset firstgid="1" source="field_tileset.tsx"/>
 <layer id="19" name="background" width="16" height="14">
  <data encoding="csv">
5,5,5,5,5,5,5,5,5,5,5,5,5,5,5,5,
5,5,5,5,5,5,5,5,5,5,5,5,5,5,5,5,
5,5,5,5,5,5,5,5,5,5,5,5,5,5,5,5,
5,5,5,5,5,5,5,5,5,5,5,5,5,5,5,5,
5,5,5,5,5,5,5,5,5,5,5,5,5,5,5,5,
5,5,5,5,5,5,5,5,5,5,5,5,5,5,5,5,
5,5,5,5,5,5,5,5,5,5,5,5,5,5,5,5,
5,5,5,5,5,5,5,5,5,5,5,5,5,5,5,5,
5,5,5,5,5,5,5,5,5,5,5,5,5,5,5,5,
5,5,5,5,5,5,5,5,5,5,5,5,5,5,5,5,
5,5,5,5,5,5,5,5,5,5,5,5,5,5,5,5,
5,5,5,5,5,5,5,5,5,5,5,5,5,5,5,5,
5,5,5,5,5,5,5,5,5,5,5,5,5,5,5,5,
5,5,5,5,5,5,5,5,5,5,5,5,5,5,5,5
</data>
 </layer>
 <layer id="20" name="grass" width="16" height="14">
  <data encoding="csv">
0,0,0,0,0,0,0,0,0,0,0,0,0,0,0,0,
0,0,8,0,0,0,0,0,0,0,6,0,0,0,0,0,
0,0,0,0,0,0,0,0,0,0,8,0,0,0,0,0,
0,0,8,8,0,7,0,7,0,6,7,0,0,0,0,0,
0,0,0,0,0,8,0,8,0,0,7,0,0,0,0,0,
0,0,0,0,6,0,6,7,0,0,8,8,0,0,0,0,
0,0,0,0,0,0,0,0,0,8,0,0,0,0,0,0,
0,6,0,8,0,7,0,0,6,7,8,0,0,0,8,0,
0,7,6,0,0,0,6,8,0,0,0,0,6,0,0,0,
0,0,0,0,0,8,0,0,0,0,0,8,0,0,8,0,
0,0,0,0,6,0,0,8,0,6,8,8,0,0,0,0,
0,0,0,8,0,0,0,0,7,0,0,7,8,0,0,0,
0,0,0,0,0,0,0,8,0,0,0,0,0,0,0,0,
0,0,0,0,0,0,0,0,0,0,0,0,0,0,0,0
</data>
 </layer>
 <layer id="21" name="paths" width="16" height="14">
  <data encoding="csv">
0,0,0,0,0,0,0,0,0,0,0,0,0,0,0,0,
0,0,0,0,0,0,0,0,0,0,0,0,0,0,0,0,
0,0,0,20,0,0,17,3,0,0,0,0,0,0,0,0,
0,0,0,36,0,17,51,0,0,20,0,0,0,0,0,0,
0,0,0,36,0,36,0,0,0,36,0,0,0,0,0,0,
0,1,2,35,0,52,0,0,0,33,3,0,0,0,0,0,
0,0,0,33,2,2,2,18,2,51,0,0,0,0,0,0,
0,0,0,52,0,0,0,36,0,0,0,20,0,0,0,0,
0,0,0,0,0,0,0,52,0,0,0,36,0,0,0,0,
0,0,0,0,0,0,0,0,0,0,0,36,0,0,0,0,
0,0,0,0,0,0,0,17,2,19,0,52,0,0,0,0,
0,0,0,0,0,0,0,49,2,51,0,0,0,0,0,0,
0,0,0,0,0,0,0,0,0,0,0,0,0,0,0,0,
0,0,0,0,0,0,0,0,0,0,0,0,0,0,0,0
</data>
 </layer>
 <layer id="22" name="obstacles" width="16" height="14">
  <data encoding="csv">
0,0,0,0,0,0,0,0,0,0,0,0,0,0,0,0,
0,0,0,0,0,0,0,0,0,0,0,0,0,0,0,0,
0,0,0,0,0,0,0,0,0,0,0,0,0,0,0,0,
0,0,0,0,0,0,0,72,0,0,0,0,0,0,0,0,
0,0,0,0,0,0,0,88,0,0,0,0,0,0,0,0,
0,0,0,0,0,0,0,104,0,0,0,0,0,0,0,0,
0,0,0,0,0,0,0,0,0,0,0,0,0,0,0,0,
0,0,0,0,0,0,0,0,0,0,0,0,101,102,102,0,
0,0,0,102,103,0,0,0,0,0,0,0,0,0,0,0,
0,0,0,101,102,103,0,0,0,0,0,0,0,0,0,0,
0,0,0,0,0,0,0,0,0,0,0,0,0,0,0,0,
0,0,0,0,0,0,0,0,0,0,0,0,0,72,0,0,
0,0,0,0,0,0,0,0,0,0,0,0,72,88,0,0,
0,0,0,0,0,0,0,0,0,0,0,0,88,88,0,0
</data>
 </layer>
 <objectgroup id="11" name="objects">
  <object id="6" gid="59" x="185" y="254" width="32" height="32"/>
  <object id="7" gid="59" x="201" y="239" width="32" height="32"/>
  <object id="8" gid="60" x="244" y="233" width="32" height="32"/>
  <object id="9" gid="76" x="296" y="256" width="32" height="32"/>
  <object id="10" gid="75" x="277" y="234" width="32" height="32"/>
  <object id="11" gid="73" x="272" y="160" width="32" height="32"/>
  <object id="12" gid="74" x="304" y="160" width="32" height="32"/>
  <object id="13" gid="61" x="362" y="159" width="32" height="32"/>
  <object id="14" gid="61" x="343" y="139" width="32" height="32"/>
  <object id="15" gid="61" x="345" y="132" width="32" height="32"/>
  <object id="16" gid="61" x="365" y="153" width="32" height="32"/>
  <object id="17" gid="63" x="336" y="295" width="32" height="32"/>
  <object id="18" gid="63" x="367" y="267" width="32" height="32"/>
  <object id="19" gid="60" x="75" y="158" width="32" height="32"/>
  <object id="20" gid="64" x="58" y="142" width="32" height="32"/>
  <object id="21" gid="62" x="55" y="152" width="32" height="32"/>
  <object id="22" gid="59" x="66" y="148" width="32" height="32"/>
  <object id="23" gid="59" x="75" y="136" width="32" height="32"/>
  <object id="24" gid="63" x="75" y="144" width="32" height="32"/>
  <object id="25" gid="57" x="188" y="160" width="32" height="32"/>
  <object id="26" gid="58" x="198" y="140" width="32" height="32"/>
  <object id="27" gid="57" x="409" y="112" width="32" height="32"/>
  <object id="28" gid="57" x="455" y="141" width="32" height="32"/>
  <object id="29" gid="57" x="427" y="192" width="32" height="32"/>
  <object id="30" gid="58" x="401" y="127" width="32" height="32"/>
  <object id="31" gid="58" x="459" y="170" width="32" height="32"/>
  <object id="32" gid="58" x="397" y="160" width="32" height="32"/>
  <object id="33" gid="57" x="405" y="171" width="32" height="32"/>
  <object id="34" gid="59" x="261" y="160" width="32" height="32"/>
  <object id="35" gid="59" x="249" y="152" width="32" height="32"/>
  <object id="36" gid="59" x="250" y="135" width="32" height="32"/>
  <object id="37" gid="59" x="316" y="161" width="32" height="32"/>
  <object id="38" gid="59" x="334" y="144" width="32" height="32"/>
  <object id="39" gid="59" x="274" y="108" width="32" height="32"/>
  <object id="40" gid="59" x="243" y="173" width="32" height="32"/>
  <object id="41" gid="59" x="264" y="188" width="32" height="32"/>
  <object id="42" gid="59" x="311" y="198" width="32" height="32"/>
  <object id="43" gid="59" x="332" y="205" width="32" height="32"/>
  <object id="44" gid="59" x="338" y="266" width="32" height="32"/>
  <object id="46" gid="59" x="367" y="298" width="32" height="32"/>
  <object id="47" gid="61" x="115" y="158" width="32" height="32"/>
  <object id="48" gid="61" x="119" y="142" width="32" height="32"/>
  <object id="49" gid="61" x="114" y="130" width="32" height="32"/>
  <object id="50" gid="75" x="21" y="161" width="32" height="32"/>
  <object id="51" gid="76" x="45" y="160" width="32" height="32"/>
  <object id="52" gid="62" x="21" y="137" width="32" height="32"/>
  <object id="53" gid="57" x="112" y="60" width="32" height="32"/>
  <object id="54" gid="57" x="290" y="72" width="32" height="32"/>
  <object id="55" gid="58" x="244" y="55" width="32" height="32"/>
  <object id="56" gid="58" x="153" y="69" width="32" height="32"/>
  <object id="57" gid="58" x="153" y="329" width="32" height="32"/>
  <object id="58" gid="57" x="172" y="351" width="32" height="32"/>
  <object id="59" gid="59" x="245" y="299" width="32" height="32"/>
  <object id="60" gid="59" x="268" y="293" width="32" height="32"/>
  <object id="61" gid="59" x="272" y="312" width="32" height="32"/>
  <object id="62" gid="59" x="263" y="319" width="32" height="32"/>
  <object id="63" gid="59" x="246" y="313" width="32" height="32"/>
  <object id="64" gid="59" x="253" y="294" width="32" height="32"/>
  <object id="65" gid="60" x="44" y="137" width="32" height="32"/>
  <object id="66" gid="61" x="33" y="151" width="32" height="32"/>
 </objectgroup>
 <layer id="24" name="bounds" width="16" height="14">
  <data encoding="csv">
26,26,12,42,13,12,42,42,13,12,42,13,26,26,26,26,
26,12,43,0,41,43,0,0,41,43,0,41,42,13,26,26,
12,43,0,0,0,0,0,0,0,0,0,0,0,41,42,13,
27,0,0,0,0,0,0,0,0,0,0,0,0,0,0,25,
27,0,0,0,0,0,0,0,0,0,0,0,0,0,0,25,
27,0,0,0,0,0,0,0,0,0,0,0,0,0,0,25,
27,0,0,0,0,0,0,0,0,0,0,0,0,0,9,29,
28,10,11,0,0,0,0,0,0,0,0,0,0,0,41,13,
26,26,28,11,0,0,0,0,0,0,0,0,0,0,0,25,
26,26,26,27,0,0,0,0,0,0,0,0,0,0,0,25,
26,26,12,43,0,0,0,0,0,0,0,0,0,0,9,29,
26,26,27,0,0,0,0,0,0,0,0,0,0,0,25,26,
26,26,28,10,10,10,11,0,0,9,10,11,0,0,25,26,
26,26,26,26,26,26,28,10,10,29,26,28,10,10,29,26
</data>
 </layer>
</map>
