<?xml version="1.0" encoding="UTF-8"?>
<map version="1.2" tiledversion="1.2.4" orientation="orthogonal" renderorder="right-down" width="16" height="14" tilewidth="32" tileheight="32" infinite="0" nextlayerid="27" nextobjectid="94">
 <tileset firstgid="1" source="field_tileset.tsx"/>
 <layer id="19" name="background" width="16" height="14">
  <data encoding="csv">
5,5,5,5,5,5,5,5,5,5,5,5,5,5,5,5,
5,5,5,5,5,5,5,5,5,5,5,5,5,5,5,5,
5,5,5,5,5,5,5,5,5,5,5,5,5,5,5,5,
5,5,5,5,5,5,5,5,5,5,5,5,5,5,5,5,
5,5,5,5,5,5,5,5,5,5,5,5,5,5,5,5,
5,5,5,5,5,5,5,5,5,5,5,5,5,5,5,5,
5,5,5,5,5,5,5,5,5,5,5,5,5,5,5,5,
5,5,5,5,5,5,5,5,5,5,5,5,5,5,5,5,
5,5,5,5,5,5,5,5,5,5,5,5,5,5,5,5,
5,5,5,5,5,5,5,5,5,5,5,5,5,5,5,5,
5,5,5,5,5,5,5,5,5,5,5,5,5,5,5,5,
5,5,5,5,5,5,5,5,5,5,5,5,5,5,5,5,
5,5,5,5,5,5,5,5,5,5,5,5,5,5,5,5,
5,5,5,5,5,5,5,5,5,5,5,5,5,5,5,5
</data>
 </layer>
 <layer id="21" name="terrains" width="16" height="14">
  <data encoding="csv">
0,0,0,0,0,0,0,0,0,0,0,0,0,0,0,0,
0,0,5,5,8,5,5,5,8,8,5,5,0,0,0,0,
0,5,7,84,5,8,81,66,83,6,8,84,8,8,0,0,
0,53,5,100,8,81,115,22,113,82,66,115,5,8,5,0,
0,5,8,100,5,100,8,54,5,100,5,5,5,5,5,0,
0,65,66,99,6,123,87,5,8,97,66,83,5,6,5,0,
0,6,8,123,120,91,124,86,120,115,8,100,53,5,8,0,
0,0,8,117,119,5,117,111,119,5,6,100,8,5,8,0,
0,0,0,8,8,5,7,100,5,5,5,97,66,67,8,0,
0,0,0,0,126,127,128,100,5,5,5,100,5,5,5,0,
0,0,0,8,53,5,8,97,66,82,66,115,8,5,0,5,
0,0,0,5,7,65,66,114,66,115,6,8,5,5,0,5,
0,0,0,0,0,0,8,8,5,8,0,8,5,5,0,5,
0,0,0,0,0,0,0,0,0,0,0,0,0,0,0,0
</data>
 </layer>
 <layer id="26" name="specials" width="16" height="14">
  <data encoding="csv">
0,0,0,0,0,0,0,0,0,0,0,0,0,0,0,0,
0,0,0,57,0,0,57,57,0,0,0,0,0,0,0,0,
0,0,57,0,57,57,0,0,0,57,57,0,0,0,0,0,
0,0,0,0,0,0,0,0,0,0,0,0,57,57,0,0,
0,0,0,0,0,0,57,0,0,0,0,0,57,57,57,0,
0,0,0,0,57,0,0,57,57,0,0,0,57,57,57,0,
0,57,57,0,0,0,0,23,0,0,57,0,0,57,0,0,
0,0,0,0,0,57,0,0,0,57,57,0,57,57,0,0,
0,0,0,0,57,57,57,0,57,57,57,0,0,0,57,0,
0,0,0,0,0,0,0,0,0,57,57,0,57,57,57,0,
0,0,0,0,0,0,0,0,0,0,0,0,0,57,0,0,
0,0,0,0,0,0,0,0,0,0,57,57,57,57,0,0,
0,0,0,0,0,0,0,57,57,0,0,0,57,57,0,0,
0,0,0,0,0,0,0,0,0,0,0,0,0,0,0,0
</data>
 </layer>
 <objectgroup id="11" name="objects">
  <object id="10" gid="75" x="277" y="234" width="32" height="32"/>
  <object id="11" gid="73" x="272" y="160" width="32" height="32"/>
  <object id="12" gid="74" x="304" y="160" width="32" height="32"/>
  <object id="13" gid="61" x="362" y="159" width="32" height="32"/>
  <object id="14" gid="61" x="343" y="139" width="32" height="32"/>
  <object id="15" gid="61" x="345" y="132" width="32" height="32"/>
  <object id="16" gid="61" x="365" y="153" width="32" height="32"/>
  <object id="17" gid="63" x="336" y="295" width="32" height="32"/>
  <object id="18" gid="63" x="367" y="267" width="32" height="32"/>
  <object id="19" gid="60" x="75" y="158" width="32" height="32"/>
  <object id="20" gid="64" x="58" y="142" width="32" height="32"/>
  <object id="21" gid="62" x="55" y="152" width="32" height="32"/>
  <object id="22" gid="59" x="66" y="148" width="32" height="32"/>
  <object id="23" gid="59" x="75" y="136" width="32" height="32"/>
  <object id="24" gid="63" x="75" y="144" width="32" height="32"/>
  <object id="34" gid="59" x="261" y="160" width="32" height="32"/>
  <object id="35" gid="59" x="249" y="152" width="32" height="32"/>
  <object id="36" gid="59" x="250" y="135" width="32" height="32"/>
  <object id="37" gid="59" x="316" y="161" width="32" height="32"/>
  <object id="38" gid="59" x="334" y="144" width="32" height="32"/>
  <object id="39" gid="59" x="274" y="108" width="32" height="32"/>
  <object id="46" gid="59" x="367" y="298" width="32" height="32"/>
  <object id="47" gid="61" x="115" y="158" width="32" height="32"/>
  <object id="48" gid="61" x="119" y="142" width="32" height="32"/>
  <object id="49" gid="61" x="114" y="130" width="32" height="32"/>
  <object id="50" gid="75" x="21" y="161" width="32" height="32"/>
  <object id="51" gid="76" x="45" y="160" width="32" height="32"/>
  <object id="52" gid="62" x="21" y="137" width="32" height="32"/>
  <object id="59" gid="59" x="245" y="299" width="32" height="32"/>
  <object id="60" gid="59" x="268" y="293" width="32" height="32"/>
  <object id="61" gid="59" x="272" y="312" width="32" height="32"/>
  <object id="62" gid="59" x="263" y="319" width="32" height="32"/>
  <object id="63" gid="59" x="246" y="313" width="32" height="32"/>
  <object id="64" gid="59" x="253" y="294" width="32" height="32"/>
  <object id="65" gid="60" x="44" y="137" width="32" height="32"/>
  <object id="66" gid="61" x="33" y="151" width="32" height="32"/>
  <object id="93" gid="39" x="224" y="212" width="32" height="32"/>
 </objectgroup>
 <layer id="24" name="bounds" width="16" height="14">
  <data encoding="csv">
26,26,12,42,13,12,42,42,13,12,42,13,26,26,26,26,
26,12,43,0,41,43,0,0,41,43,0,41,42,13,26,26,
12,43,0,0,0,0,0,0,0,0,0,0,0,41,42,13,
27,0,0,0,0,0,0,0,0,0,0,0,0,0,0,25,
27,0,0,0,0,0,0,0,0,0,0,0,0,0,0,25,
27,0,0,0,0,0,0,0,0,0,0,0,0,0,0,25,
27,0,0,0,0,0,0,0,0,0,0,0,0,0,9,29,
28,10,11,0,0,0,0,0,0,0,0,0,0,0,41,13,
26,26,28,11,0,0,0,0,0,0,0,0,0,0,0,25,
26,26,26,27,0,0,0,0,0,0,0,0,0,0,0,25,
26,26,12,43,0,0,0,0,0,0,0,0,0,0,9,29,
26,26,27,0,0,0,0,0,0,0,0,0,0,0,25,26,
26,26,28,10,10,10,11,0,0,9,10,11,0,0,25,26,
26,26,26,26,26,26,28,10,10,29,26,28,10,10,29,26
</data>
 </layer>
</map>
