<?xml version="1.0" encoding="UTF-8"?>
<map version="1.2" tiledversion="1.2.4" orientation="orthogonal" renderorder="right-down" width="20" height="18" tilewidth="32" tileheight="32" infinite="0" nextlayerid="41" nextobjectid="189">
 <tileset firstgid="1" source="field_tileset.tsx"/>
 <tileset firstgid="129" source="field_tileset.tsx"/>
 <layer id="27" name="background" width="20" height="18">
  <data encoding="csv">
133,133,133,133,133,133,133,133,133,133,133,133,133,133,133,133,133,133,133,133,
133,133,133,134,133,133,133,133,133,136,133,133,133,133,136,133,133,133,133,133,
133,133,136,133,133,136,133,133,133,133,136,135,133,133,135,133,136,133,133,133,
133,133,133,133,133,133,136,133,133,133,136,136,133,133,133,133,133,134,133,133,
133,133,133,133,135,133,133,136,133,133,133,134,136,133,136,136,133,133,133,133,
133,134,133,133,133,133,136,133,133,133,133,133,133,133,133,136,133,133,134,133,
133,133,133,133,133,133,133,133,136,133,133,133,133,133,133,133,133,133,133,133,
133,133,133,133,133,133,133,133,133,133,136,133,133,133,133,134,133,133,133,133,
133,133,133,134,133,133,133,133,133,133,133,133,136,133,133,133,136,135,133,133,
133,136,133,133,136,133,133,133,133,133,133,133,134,133,136,133,136,133,133,133,
133,133,136,133,135,136,136,133,133,133,133,133,133,133,133,133,136,133,133,133,
133,133,134,133,133,133,133,133,133,133,133,133,133,133,133,133,133,133,133,133,
133,133,133,133,133,136,133,133,136,133,133,133,133,133,136,133,133,133,134,133,
133,133,133,133,133,133,135,133,133,133,133,133,134,136,133,135,133,133,133,133,
133,133,133,133,133,133,133,133,136,136,133,136,133,136,133,133,133,136,133,133,
133,133,133,133,133,134,133,133,133,135,133,133,133,133,133,133,134,133,133,133,
133,133,133,133,133,133,133,136,133,133,135,133,133,133,133,133,136,133,133,133,
133,133,133,133,133,133,133,133,133,133,133,133,133,133,133,133,133,133,133,133
</data>
 </layer>
 <layer id="40" name="terrains" width="20" height="18" opacity="1">
  <data encoding="csv">
0,0,0,0,0,0,0,0,0,0,0,0,0,0,0,0,0,0,0,0,
0,0,0,0,0,0,0,0,0,0,0,0,0,0,0,0,0,0,0,0,
0,0,0,0,0,0,0,0,209,194,211,0,0,0,0,0,0,0,0,0,
0,0,0,193,194,194,210,194,243,0,228,0,0,0,209,194,194,195,0,0,
0,0,0,0,0,0,228,0,0,81,242,83,0,0,228,0,0,0,0,0,
0,0,0,0,53,0,100,0,81,115,22,113,82,66,242,194,211,0,0,0,
0,0,0,0,0,0,100,0,100,0,54,0,100,0,0,0,228,0,0,0,
0,0,0,209,194,66,99,0,123,87,0,0,97,66,83,0,228,0,0,0,
0,0,0,228,0,0,123,120,91,124,86,120,115,0,100,53,228,0,0,0,
0,0,0,228,0,0,250,119,0,117,111,119,0,0,100,0,228,0,0,0,
0,0,193,242,211,0,228,0,0,0,100,0,0,0,97,66,242,211,0,0,
0,0,0,0,228,0,228,126,127,128,100,0,0,0,100,0,0,228,0,0,
0,0,0,0,241,194,227,53,0,0,97,66,82,66,115,0,0,228,0,0,
0,0,0,0,0,0,241,194,210,66,114,66,115,0,0,0,0,228,0,0,
0,0,0,0,0,0,0,0,228,0,0,0,0,0,0,0,0,244,0,0,
0,0,0,0,0,0,0,193,243,0,0,0,0,0,0,0,0,0,0,0,
0,0,0,0,0,0,0,0,0,0,0,0,0,0,0,0,0,0,0,0,
0,0,0,0,0,0,0,0,0,0,0,0,0,0,0,0,0,0,0,0
</data>
 </layer>
 <layer id="29" name="specials" width="20" height="18">
  <data encoding="csv">
0,0,0,0,0,0,0,0,0,0,0,0,0,0,0,0,0,0,0,0,
0,0,0,0,0,0,0,0,0,0,0,0,0,0,0,0,0,0,0,0,
0,0,0,0,0,0,0,0,0,0,0,0,0,0,0,0,0,0,0,0,
0,0,0,0,0,0,0,0,0,0,0,0,0,0,0,0,0,0,0,0,
0,0,0,0,0,0,0,0,0,0,0,0,0,0,0,0,0,0,0,0,
0,0,0,0,0,0,0,0,0,0,0,0,0,0,0,0,0,0,0,0,
0,0,0,0,0,0,0,0,0,0,0,0,0,0,0,0,0,0,0,0,
0,0,0,0,0,0,0,0,0,0,0,0,0,0,0,0,0,0,0,0,
0,0,0,0,0,0,0,0,0,0,151,0,0,0,0,0,0,0,0,0,
0,0,0,0,0,0,0,0,0,0,0,0,0,0,0,0,0,0,0,0,
0,0,0,0,0,0,0,0,0,0,0,0,0,0,0,0,0,0,0,0,
0,0,0,0,0,0,0,0,0,0,0,0,0,0,0,0,0,0,0,0,
0,0,0,0,0,0,0,0,0,0,0,0,0,0,0,0,0,0,0,0,
0,0,0,0,0,0,0,0,0,0,0,0,0,0,0,0,0,0,0,0,
0,0,0,0,0,0,0,0,0,0,0,0,0,0,0,0,0,0,0,0,
0,0,0,0,0,0,0,0,0,0,0,0,0,0,0,0,0,0,0,0,
0,0,0,0,0,0,0,0,0,0,0,0,0,0,0,0,0,0,0,0,
0,0,0,0,0,0,0,0,0,0,0,0,0,0,0,0,0,0,0,0
</data>
 </layer>
 <objectgroup id="11" name="objects">
  <object id="8" gid="60" x="340" y="297" width="32" height="32"/>
  <object id="9" gid="76" x="392" y="320" width="32" height="32"/>
  <object id="10" gid="75" x="373" y="298" width="32" height="32"/>
  <object id="11" gid="73" x="368" y="224" width="32" height="32"/>
  <object id="12" gid="74" x="400" y="224" width="32" height="32"/>
  <object id="13" gid="61" x="458" y="223" width="32" height="32"/>
  <object id="14" gid="61" x="439" y="203" width="32" height="32"/>
  <object id="15" gid="61" x="441" y="196" width="32" height="32"/>
  <object id="16" gid="61" x="461" y="217" width="32" height="32"/>
  <object id="17" gid="63" x="432" y="359" width="32" height="32"/>
  <object id="18" gid="63" x="463" y="331" width="32" height="32"/>
  <object id="19" gid="60" x="171" y="222" width="32" height="32"/>
  <object id="20" gid="64" x="154" y="206" width="32" height="32"/>
  <object id="21" gid="62" x="151" y="216" width="32" height="32"/>
  <object id="22" gid="59" x="162" y="212" width="32" height="32"/>
  <object id="23" gid="59" x="171" y="200" width="32" height="32"/>
  <object id="24" gid="63" x="171" y="208" width="32" height="32"/>
  <object id="26" gid="58" x="294" y="204" width="32" height="32"/>
  <object id="27" gid="57" x="510" y="163" width="32" height="32"/>
  <object id="28" gid="57" x="551" y="205" width="32" height="32"/>
  <object id="29" gid="57" x="535" y="256" width="32" height="32"/>
  <object id="30" gid="58" x="492" y="199" width="32" height="32"/>
  <object id="33" gid="57" x="467" y="235" width="32" height="32"/>
  <object id="34" gid="59" x="357" y="224" width="32" height="32"/>
  <object id="35" gid="59" x="345" y="216" width="32" height="32"/>
  <object id="36" gid="59" x="346" y="199" width="32" height="32"/>
  <object id="37" gid="59" x="412" y="225" width="32" height="32"/>
  <object id="38" gid="59" x="430" y="208" width="32" height="32"/>
  <object id="39" gid="59" x="370" y="172" width="32" height="32"/>
  <object id="40" gid="59" x="339" y="237" width="32" height="32"/>
  <object id="41" gid="59" x="360" y="252" width="32" height="32"/>
  <object id="42" gid="59" x="407" y="262" width="32" height="32"/>
  <object id="43" gid="59" x="428" y="269" width="32" height="32"/>
  <object id="44" gid="59" x="434" y="330" width="32" height="32"/>
  <object id="46" gid="59" x="463" y="362" width="32" height="32"/>
  <object id="47" gid="61" x="211" y="222" width="32" height="32"/>
  <object id="48" gid="61" x="215" y="206" width="32" height="32"/>
  <object id="49" gid="61" x="210" y="194" width="32" height="32"/>
  <object id="50" gid="75" x="117" y="225" width="32" height="32"/>
  <object id="51" gid="76" x="141" y="224" width="32" height="32"/>
  <object id="52" gid="62" x="117" y="201" width="32" height="32"/>
  <object id="53" gid="57" x="209" y="128" width="32" height="32"/>
  <object id="55" gid="58" x="340" y="119" width="32" height="32"/>
  <object id="57" gid="58" x="249" y="393" width="32" height="32"/>
  <object id="59" gid="59" x="341" y="363" width="32" height="32"/>
  <object id="60" gid="59" x="364" y="357" width="32" height="32"/>
  <object id="61" gid="59" x="368" y="376" width="32" height="32"/>
  <object id="62" gid="59" x="359" y="383" width="32" height="32"/>
  <object id="63" gid="59" x="342" y="377" width="32" height="32"/>
  <object id="64" gid="59" x="349" y="358" width="32" height="32"/>
  <object id="65" gid="60" x="140" y="201" width="32" height="32"/>
  <object id="66" gid="61" x="129" y="215" width="32" height="32"/>
  <object id="67" gid="58" x="252" y="329" width="32" height="32"/>
  <object id="68" gid="57" x="265" y="340" width="32" height="32"/>
  <object id="69" gid="58" x="245" y="347" width="32" height="32"/>
  <object id="70" gid="57" x="269" y="352" width="32" height="32"/>
  <object id="71" gid="58" x="277" y="347" width="32" height="32"/>
  <object id="72" gid="57" x="297" y="340" width="32" height="32"/>
  <object id="73" gid="58" x="284" y="329" width="32" height="32"/>
  <object id="74" gid="57" x="301" y="352" width="32" height="32"/>
  <object id="75" gid="58" x="245" y="314" width="32" height="32"/>
  <object id="76" gid="57" x="265" y="307" width="32" height="32"/>
  <object id="77" gid="58" x="252" y="296" width="32" height="32"/>
  <object id="78" gid="57" x="269" y="319" width="32" height="32"/>
  <object id="80" gid="58" x="306" y="251" width="32" height="32"/>
  <object id="81" gid="57" x="326" y="244" width="32" height="32"/>
  <object id="82" gid="58" x="313" y="233" width="32" height="32"/>
  <object id="83" gid="57" x="330" y="256" width="32" height="32"/>
  <object id="84" gid="58" x="211" y="251" width="32" height="32"/>
  <object id="85" gid="57" x="231" y="244" width="32" height="32"/>
  <object id="86" gid="58" x="218" y="233" width="32" height="32"/>
  <object id="87" gid="57" x="235" y="256" width="32" height="32"/>
  <object id="88" gid="58" x="148" y="282" width="32" height="32"/>
  <object id="89" gid="57" x="168" y="275" width="32" height="32"/>
  <object id="90" gid="58" x="155" y="264" width="32" height="32"/>
  <object id="91" gid="57" x="172" y="287" width="32" height="32"/>
  <object id="93" gid="39" x="320" y="276" width="32" height="32"/>
  <object id="94" gid="58" x="277" y="411" width="32" height="32"/>
  <object id="95" gid="57" x="297" y="404" width="32" height="32"/>
  <object id="96" gid="57" x="301" y="416" width="32" height="32"/>
  <object id="97" gid="58" x="284" y="393" width="32" height="32"/>
  <object id="98" gid="58" x="213" y="347" width="32" height="32"/>
  <object id="99" gid="57" x="233" y="340" width="32" height="32"/>
  <object id="100" gid="57" x="237" y="352" width="32" height="32"/>
  <object id="101" gid="58" x="220" y="329" width="32" height="32"/>
  <object id="102" gid="58" x="213" y="187" width="32" height="32"/>
  <object id="103" gid="57" x="233" y="180" width="32" height="32"/>
  <object id="104" gid="57" x="237" y="192" width="32" height="32"/>
  <object id="105" gid="58" x="220" y="169" width="32" height="32"/>
  <object id="106" gid="58" x="213" y="187" width="32" height="32"/>
  <object id="107" gid="57" x="233" y="180" width="32" height="32"/>
  <object id="108" gid="57" x="237" y="192" width="32" height="32"/>
  <object id="109" gid="58" x="220" y="169" width="32" height="32"/>
  <object id="114" gid="58" x="213" y="155" width="32" height="32"/>
  <object id="115" gid="57" x="233" y="148" width="32" height="32"/>
  <object id="116" gid="58" x="220" y="137" width="32" height="32"/>
  <object id="117" gid="57" x="237" y="160" width="32" height="32"/>
  <object id="118" gid="58" x="245" y="155" width="32" height="32"/>
  <object id="119" gid="57" x="265" y="148" width="32" height="32"/>
  <object id="120" gid="58" x="252" y="137" width="32" height="32"/>
  <object id="121" gid="57" x="269" y="160" width="32" height="32"/>
  <object id="122" gid="58" x="149" y="315" width="32" height="32"/>
  <object id="123" gid="57" x="169" y="308" width="32" height="32"/>
  <object id="124" gid="58" x="156" y="297" width="32" height="32"/>
  <object id="125" gid="57" x="173" y="320" width="32" height="32"/>
  <object id="126" gid="58" x="149" y="347" width="32" height="32"/>
  <object id="127" gid="57" x="169" y="340" width="32" height="32"/>
  <object id="128" gid="58" x="156" y="329" width="32" height="32"/>
  <object id="129" gid="57" x="173" y="352" width="32" height="32"/>
  <object id="130" gid="58" x="117" y="283" width="32" height="32"/>
  <object id="131" gid="57" x="137" y="276" width="32" height="32"/>
  <object id="132" gid="58" x="124" y="265" width="32" height="32"/>
  <object id="133" gid="57" x="141" y="288" width="32" height="32"/>
  <object id="134" gid="58" x="149" y="155" width="32" height="32"/>
  <object id="135" gid="57" x="169" y="148" width="32" height="32"/>
  <object id="136" gid="58" x="156" y="137" width="32" height="32"/>
  <object id="137" gid="57" x="173" y="160" width="32" height="32"/>
  <object id="138" gid="58" x="373" y="347" width="32" height="32"/>
  <object id="139" gid="57" x="393" y="340" width="32" height="32"/>
  <object id="140" gid="58" x="380" y="329" width="32" height="32"/>
  <object id="141" gid="57" x="397" y="352" width="32" height="32"/>
  <object id="142" gid="58" x="405" y="315" width="32" height="32"/>
  <object id="143" gid="57" x="425" y="308" width="32" height="32"/>
  <object id="144" gid="58" x="412" y="297" width="32" height="32"/>
  <object id="145" gid="57" x="429" y="320" width="32" height="32"/>
  <object id="146" gid="58" x="405" y="155" width="32" height="32"/>
  <object id="147" gid="57" x="425" y="148" width="32" height="32"/>
  <object id="148" gid="58" x="412" y="137" width="32" height="32"/>
  <object id="149" gid="57" x="429" y="160" width="32" height="32"/>
  <object id="150" gid="58" x="469" y="379" width="32" height="32"/>
  <object id="151" gid="57" x="489" y="372" width="32" height="32"/>
  <object id="152" gid="58" x="476" y="361" width="32" height="32"/>
  <object id="153" gid="57" x="493" y="384" width="32" height="32"/>
  <object id="154" gid="58" x="405" y="443" width="32" height="32"/>
  <object id="155" gid="57" x="425" y="436" width="32" height="32"/>
  <object id="156" gid="58" x="412" y="425" width="32" height="32"/>
  <object id="157" gid="57" x="429" y="448" width="32" height="32"/>
  <object id="158" gid="58" x="213" y="475" width="32" height="32"/>
  <object id="159" gid="57" x="233" y="468" width="32" height="32"/>
  <object id="160" gid="58" x="220" y="457" width="32" height="32"/>
  <object id="161" gid="57" x="237" y="480" width="32" height="32"/>
  <object id="162" gid="59" x="318" y="465" width="32" height="32"/>
  <object id="163" gid="59" x="301" y="459" width="32" height="32"/>
  <object id="164" gid="59" x="327" y="458" width="32" height="32"/>
  <object id="165" gid="59" x="162" y="437" width="32" height="32"/>
  <object id="166" gid="59" x="145" y="431" width="32" height="32"/>
  <object id="167" gid="59" x="171" y="430" width="32" height="32"/>
  <object id="168" gid="59" x="69" y="301" width="32" height="32"/>
  <object id="169" gid="59" x="52" y="295" width="32" height="32"/>
  <object id="170" gid="59" x="78" y="294" width="32" height="32"/>
  <object id="171" gid="59" x="292" y="122" width="32" height="32"/>
  <object id="172" gid="59" x="275" y="116" width="32" height="32"/>
  <object id="173" gid="59" x="301" y="115" width="32" height="32"/>
  <object id="174" gid="59" x="426" y="101" width="32" height="32"/>
  <object id="175" gid="59" x="409" y="95" width="32" height="32"/>
  <object id="176" gid="59" x="435" y="94" width="32" height="32"/>
  <object id="177" gid="59" x="553" y="230" width="32" height="32"/>
  <object id="178" gid="59" x="536" y="224" width="32" height="32"/>
  <object id="179" gid="59" x="562" y="223" width="32" height="32"/>
  <object id="183" gid="59" x="540" y="320" width="32" height="32"/>
  <object id="184" gid="59" x="563" y="314" width="32" height="32"/>
  <object id="185" gid="59" x="548" y="315" width="32" height="32"/>
  <object id="186" gid="59" x="441" y="417" width="32" height="32"/>
  <object id="187" gid="59" x="464" y="411" width="32" height="32"/>
  <object id="188" gid="59" x="449" y="412" width="32" height="32"/>
 </objectgroup>
 <layer id="30" name="bounds" width="20" height="18">
  <data encoding="csv">
154,154,140,170,170,170,170,141,140,170,170,170,141,140,170,141,154,154,154,154,
154,140,171,0,0,0,0,169,171,0,0,0,169,171,0,169,170,170,141,154,
140,171,0,0,0,0,0,0,0,0,0,0,0,0,0,0,0,0,153,154,
155,0,0,0,0,0,0,0,0,0,0,0,0,0,0,0,0,0,153,154,
155,0,0,0,0,0,0,0,0,0,0,0,0,0,0,0,0,0,169,141,
155,0,0,0,0,0,0,0,0,0,0,0,0,0,0,0,0,0,0,153,
155,0,0,0,0,0,0,0,0,0,0,0,0,0,0,0,0,0,0,153,
155,0,0,0,0,0,0,0,0,0,0,0,0,0,0,0,0,0,0,153,
155,0,0,0,0,0,0,0,0,0,0,0,0,0,0,0,0,0,0,153,
155,0,0,0,0,0,0,0,0,0,0,0,0,0,0,0,0,0,0,153,
155,0,0,0,0,0,0,0,0,0,0,0,0,0,0,0,0,0,137,157,
156,139,0,0,0,0,0,0,0,0,0,0,0,0,0,0,0,0,169,141,
154,156,138,139,0,0,0,0,0,0,0,0,0,0,0,0,0,0,0,153,
154,154,154,155,0,0,0,0,0,0,0,0,0,0,0,0,0,0,0,153,
154,154,154,156,139,0,0,0,0,0,0,0,0,0,0,0,0,0,137,157,
154,154,154,154,155,0,0,0,0,0,0,0,0,0,0,0,0,0,153,154,
154,154,154,154,156,138,139,0,0,0,0,137,138,138,139,0,0,0,153,154,
154,154,154,154,154,154,156,138,138,138,138,157,154,154,156,138,138,138,157,154
</data>
 </layer>
</map>
